src/assets/svgs/contact-email.svg

<svg xmlns="http://www.w3.org/2000/svg" width="24" height="25" viewBox="0 0 24 25" fill="none">
<path d="M19 4.5H5C4.20435 4.5 3.44129 4.81607 2.87868 5.37868C2.31607 5.94129 2 6.70435 2 7.5V17.5C2 18.2956 2.31607 19.0587 2.87868 19.6213C3.44129 20.1839 4.20435 20.5 5 20.5H19C19.7956 20.5 20.5587 20.1839 21.1213 19.6213C21.6839 19.0587 22 18.2956 22 17.5V7.5C22 6.70435 21.6839 5.94129 21.1213 5.37868C20.5587 4.81607 19.7956 4.5 19 4.5V4.5ZM18.59 6.5L12.71 12.38C12.617 12.4737 12.5064 12.5481 12.3846 12.5989C12.2627 12.6497 12.132 12.6758 12 12.6758C11.868 12.6758 11.7373 12.6497 11.6154 12.5989C11.4936 12.5481 11.383 12.4737 11.29 12.38L5.41 6.5H18.59ZM20 17.5C20 17.7652 19.8946 18.0196 19.7071 18.2071C19.5196 18.3946 19.2652 18.5 19 18.5H5C4.73478 18.5 4.48043 18.3946 4.29289 18.2071C4.10536 18.0196 4 17.7652 4 17.5V7.91L9.88 13.79C10.4425 14.3518 11.205 14.6674 12 14.6674C12.795 14.6674 13.5575 14.3518 14.12 13.79L20 7.91V17.5Z" fill="#767676"/>
</svg>

<svg xmlns="http://www.w3.org/2000/svg" width="24" height="25" fill="none"><path d="M19 4.5H5a3 3 0 0 0-3 3v10a3 3 0 0 0 3 3h14a3 3 0 0 0 3-3v-10a3 3 0 0 0-3-3Zm-.41 2-5.88 5.88a1.002 1.002 0 0 1-1.42 0L5.41 6.5h13.18Zm1.41 11a1 1 0 0 1-1 1H5a1 1 0 0 1-1-1V7.91l5.88 5.88a3 3 0 0 0 4.24 0L20 7.91v9.59Z" fill="#767676"/></svg>
